src/images/icon-point.svg

<svg width="17" height="18" viewBox="0 0 17 18" fill="none" xmlns="http://www.w3.org/2000/svg">
<path d="M6.87988 9.17896C6.91391 9.19569 6.93092 9.20405 6.95644 9.21242C6.93092 9.20405 6.92241 9.19569 6.87988 9.17896Z" fill="#181B2B"/>
<path d="M14.094 5.29399C11.3384 4.13538 8.39569 5.66031 7.50268 8.46313C7.47717 8.5398 7.30705 8.99131 7.22201 9.22985C7.15397 9.22133 7.09444 9.21281 7.06892 9.21281C7.00939 9.20429 6.98388 9.21282 6.96687 9.22134C7.06893 9.27245 7.11145 9.28949 7.09444 9.28949C7.06892 9.27245 7.0264 9.25541 6.96687 9.22985C6.72873 9.14466 6.27796 8.94873 6.23544 8.93169C5.95478 8.81242 5.67412 8.70167 5.38495 8.5824C3.35229 7.77307 1.37916 9.80064 1.31962 11.6834C1.19205 15.3381 4.88318 17.8087 8.19157 17.9876C12.0698 18.2006 14.9274 15.6107 16.4328 12.2371C17.615 9.57062 17.0026 6.52075 14.094 5.29399Z" fill="#8AFFCE"/>
<path d="M7.6633 14.6142C7.34012 14.6142 7.03395 14.495 6.79581 14.2735C5.65616 13.2171 4.53351 12.1351 3.41086 11.0532C2.41579 10.0905 1.41222 9.12787 0.408643 8.19076C0.162002 7.96074 0.0174353 7.63701 0.000425549 7.29624C-0.00807933 6.95547 0.110992 6.62324 0.349129 6.37618L0.918941 5.77131C2.60291 3.97376 4.33791 2.11657 6.14095 0.361616C6.61722 -0.0984209 7.35714 -0.123976 7.85892 0.310503C9.09213 1.36688 10.2743 2.49142 11.414 3.57336C12.29 4.40824 13.2 5.26867 14.11 6.08652C14.6373 6.55507 14.6798 7.35588 14.2206 7.88407C13.3531 8.8723 12.4856 9.83497 11.6181 10.8062C10.6145 11.9222 9.61092 13.0382 8.62436 14.1712C8.39473 14.4353 8.07155 14.5887 7.73136 14.6057C7.70584 14.6142 7.68031 14.6142 7.6633 14.6142ZM3.07919 7.20254C3.78509 7.86704 4.48249 8.54004 5.17989 9.21306C5.97085 9.97979 6.7703 10.7465 7.56976 11.4962C8.28417 10.6869 8.99858 9.8946 9.7215 9.08528C10.3083 8.43782 10.8952 7.78185 11.4735 7.13439C10.8526 6.5636 10.2488 5.98429 9.65347 5.42202C8.81149 4.62122 7.95249 3.80338 7.07649 3.01961C5.71571 4.3912 4.38043 5.81391 3.07919 7.20254Z" fill="#2F354D"/>
</svg>

<svg width="17" height="18" fill="none" xmlns="http://www.w3.org/2000/svg"><path d="M6.88 9.179a.543.543 0 0 0 .076.033c-.025-.008-.034-.016-.076-.033z" fill="#181B2B"/><path d="M14.094 5.294c-2.756-1.159-5.698.366-6.591 3.17-.026.076-.196.527-.281.766-.068-.009-.128-.017-.153-.017-.06-.009-.085 0-.102.008.102.051.144.068.127.068-.025-.017-.068-.034-.127-.06-.238-.084-.689-.28-.732-.297-.28-.12-.56-.23-.85-.35-2.033-.809-4.006 1.219-4.065 3.101-.128 3.655 3.563 6.126 6.872 6.305 3.878.213 6.735-2.377 8.24-5.75 1.183-2.667.57-5.717-2.338-6.944z" fill="#8AFFCE"/><path d="M7.663 14.614c-.323 0-.63-.119-.867-.34-1.14-1.057-2.262-2.139-3.385-3.22A235.155 235.155 0 0 0 .409 8.19 1.312 1.312 0 0 1 0 7.296c-.008-.34.111-.673.35-.92l.569-.605C2.603 3.974 4.338 2.117 6.14.361a1.268 1.268 0 0 1 1.718-.05c1.233 1.056 2.415 2.18 3.555 3.262.876.835 1.786 1.696 2.696 2.514.527.468.57 1.269.11 1.797-.867.988-1.734 1.951-2.602 2.922a281.391 281.391 0 0 0-2.994 3.365c-.23.264-.552.418-.893.435-.025.008-.05.008-.068.008zM3.08 7.203c.706.664 1.403 1.337 2.1 2.01.792.767 1.591 1.534 2.39 2.283.715-.81 1.43-1.601 2.153-2.41.586-.648 1.173-1.304 1.752-1.952-.621-.57-1.225-1.15-1.82-1.712-.843-.8-1.702-1.619-2.578-2.402A203.561 203.561 0 0 0 3.08 7.203z" fill="#2F354D"/></svg>
